X:59
T:Fisher’s Minuet. 2voices. Dix.59
M:3/4
L:1/8
Q:3/4=35
S:Anon. MS dated 1811, from Dixon collection, Holton le Moor, Lincs.
R:minuet
N:Repeat sign added at start
O:England;Lincolnshire;Holton le Moor
Z:vmp.R.Greig 2012 <http://www.village-music-project.org.uk>
K:C
[V:1]|:[g4e4c4G4]f/e/d/c/|g>f”tr” d2>f2|eggc’c’e|{f}ed{d}cB{B}AG|!
[V:2]|:C,2E,2C,2|D,2B,,2G,,2|C,2E,2C,2|G,2G,,2z2|!
[V:1][g4e4c4G4] f/e/d/c/|g>f “tr”d2>f2|e/g/ac2″tr”B2|{c}[c6G6E6]:|!
[V:2]C,2E,2C,2|E,2B,,2G,,2|C,2G,2G,,2|C,2G,,2C,,2:|!
[V:1]|:[d4B4G4]c/B/A/G/|^e2c2 e/c/e/c/|[f2d2]d2 f/d/f/d/|”tr”g2e/g/a/g/ c’/g/a/g/ |!
[V:2]|:G,,G,G,,G,G,,G,|G,,G,G,,G,G,,G,|G,,G,G,,G,G,,G,|[C,2C,,2]z2 z2|!
[V:1]”tr”g2 e/g/a/g/ c’/g/a/g/|g/e/a/g/ f/d/g/f/ e/c/f/e/|e/d/G/A/ B/c/d/e/ f/g/a/b/|c’/g/e/g/ f/a/d/f/ e/g/c/e/|{f}ed{d}cB{B}AG:|
[V:2][C,2C,,2]z2 z2 |E,2B,,2C,,2|G,2G,,2z2|e,,2b,,2c,2|A,2G,,2z2:|

